brandFactory_export/2.Regular/Cuidado precaucion _2Regular.svg

<?xml version="1.0" encoding="UTF-8"?>
<svg width="24px" height="24px" viewBox="0 0 24 24" version="1.1" xmlns="http://www.w3.org/2000/svg" xmlns:xlink="http://www.w3.org/1999/xlink">
    <title>2.Regular/Cuidado precaucion _2Regular</title>
    <g id="Symbols" stroke="none" stroke-width="1" fill="none" fill-rule="evenodd">
        <g id="2.Regular/Cuidado-precaucion-_2Regular" fill="#5CB615" fill-rule="nonzero">
            <path d="M12.3260504,22.1378151 C15.2806723,22.0840336 22.1478992,20.9714286 22.1478992,11.8420168 C22.1478992,2.7092437 15.2403361,1.55630252 12.2689076,1.48571429 C12.0033613,1.4789916 11.697479,1.47563025 11.4016807,1.47563025 L11.1966387,1.47563025 C8.27226891,1.50252101 1.47226891,2.55798319 1.47226891,11.7714286 C1.47226891,21.005042 8.33613445,22.1008403 11.287395,22.1411765 L11.6336134,22.1445378 C11.8789916,22.1445378 12.1176471,22.1411765 12.3260504,22.1378151 Z M12.3058824,0.0134453782 C14.6218487,0.0672268908 23.6235294,0.981512605 23.6235294,11.8453782 C23.6235294,22.7327731 14.605042,23.5764706 12.3529412,23.6201681 C12.1378151,23.6235294 11.8890756,23.6268908 11.6403361,23.6268908 C11.5159664,23.6268908 11.3915966,23.6235294 11.2705882,23.6235294 C8.90084034,23.5865546 0,22.7294118 0,11.7747899 C0,0.833613445 8.81680672,0.0201680672 11.1865546,0 L11.4016807,0 C11.7109244,0 12.0302521,0.00336134454 12.3058824,0.0134453782 Z M11.8084034,16.0067227 C11.4016807,16.0067227 11.0689076,15.6773109 11.0689076,15.2672269 L11.0689076,5.06890756 C11.0689076,4.66218487 11.3983193,4.32941176 11.8084034,4.32941176 C12.2184874,4.32941176 12.5478992,4.65882353 12.5478992,5.06890756 L12.5478992,15.2672269 C12.5445378,15.6739496 12.2151261,16.0067227 11.8084034,16.0067227 Z M11.8084034,17.0117647 C12.2722689,17.0117647 12.6487395,17.3882353 12.6521008,17.8521008 C12.6521008,18.3159664 12.2756303,18.692437 11.8117647,18.6957983 L11.8084034,18.6957983 C11.3445378,18.6957983 10.9680672,18.3193277 10.9680672,17.8521008 C10.9680672,17.3882353 11.3445378,17.0117647 11.8084034,17.0117647 L11.8084034,17.0117647 Z" id="Cuidado-precaucion-_2Regular"></path>
        </g>
    </g>
</svg>

<svg width="24" height="24" viewBox="0 0 24 24" xmlns="http://www.w3.org/2000/svg"><path d="M12.326 22.138c2.955-.054 9.822-1.167 9.822-10.296 0-9.133-6.908-10.286-9.88-10.356a35.42 35.42 0 00-.866-.01h-.205c-2.925.027-9.725 1.082-9.725 10.295 0 9.234 6.864 10.33 9.815 10.37l.347.004c.245 0 .484-.004.692-.007zM12.306.013c2.316.054 11.318.969 11.318 11.832 0 10.888-9.019 11.731-11.271 11.775-.215.004-.464.007-.713.007-.124 0-.248-.003-.37-.003C8.9 23.587 0 22.729 0 11.774 0 .835 8.817.02 11.187 0h.215c.309 0 .628.003.904.013zm-.498 15.994a.74.74 0 01-.74-.74V5.07a.74.74 0 011.48 0v10.198a.744.744 0 01-.74.74zm0 1.005c.464 0 .84.376.844.84 0 .464-.376.84-.84.844h-.004a.841.841 0 010-1.684z" fill="#5CB615" fill-rule="nonzero"/></svg>
